X:1
T:Thanks for the Bible
T:Thanks for the Bible
T:Ira David Sankey
T:Frances Jane (Fanny) Crosby, 1902
T:Public Domain Courtesy of the Cyber Hymnal™
T:Public Domain Courtesy of the Cyber Hymnal™
C:Ira David Sankey
Z:Public Domain
Z:Courtesy of the Cyber Hymnal™
%%score ( 1 2 ) ( 3 4 )
L:1/8
Q:1/4=135
M:3/4
K:G
V:1 treble 
V:2 treble 
V:3 bass 
V:4 bass 
V:1
 [DB]2 [^C^A]2 [DB]2 | [Ec]4 [DB]2 | [FA]2 G2 [DA]2 | [DB]4 [B,G]2 | [EG]2 [DF]2 [CE]2 | %5
w: 1.~Thanks for Thy|Word, O|bless- èd Re-|deem- er!|O- pen our|
w: 2.~Thanks for Thy|Word of|pre- cept and|prom- ise,|Lamp to our|
w: 3.~Bless- èd are|they who|keep its com-|mand- ments,|They shall a-|
 [B,D]4 [DG]2 | [^CG]2 [CF]2 [CG]2 | [DA]6 | [DB]2 [^C^A]2 [DB]2 | [Ec]4 [DB]2 | [FA]2 G2 [DA]2 | %11
w: eyes its|beau- ty to|see;|Grant us Thy|grace to|stu- dy it|
w: feet and|light to our|way,|Points us a-|far where|plea- sures im-|
w: bide for|ev- er with|Thee;|Close by the|clear and|beau- ti- ful|
 [DB]4 [DG]2 | [EG]2 [Ec]2 [Ge]2 | [Gd]4 [GB]2 | [FB]4 [FA]2 | G6 ||"^Refrain" [Gd]2 [G^c]2 [Gd]2 | %17
w: wise- ly,|Close ev- ery|heart to|all but|Thee.||
w: mor- tal|Bloom in Thine|own bright|realm of|day.|Thanks for the|
w: ri- ver,|Shar- ing the|fruits of|life’s fair|tree.||
 [DB]4 [DB]2 | [DB]2 [Ec]2 [=Fd]2 | [Ed]4 [Ec]2 | [Fc]2 [FB]2 [Fc]2 | [FA]4 [GB]2 | %22
w: |||||
w: Bi- ble,|off- ’ring so|free- ly|Par- don and|peace to|
w: |||||
 [Fc]2 [Fd]2 [Ac]2 | [GB]6 | [DB]2 [^C^A]2 [DB]2 | [DG]4 [=FG]2 | [EG]2 [Ec]2 [Ge]2 | [Gd]4 [GB]2 | %28
w: ||||||
w: all who be-|lieve;|Help us, O|Lord, its|coun- sel to|fol- low,|
w: ||||||
 [Gc]2 [Gd]2 [Ge]2 | [Gd]4 G2 | B4 [FA]2 | G6 |] %32
w: ||||
w: Meek- ly by|faith its|truth re-|ceive.|
w: ||||
V:2
 x6 | x6 | x2 G2 x2 | x6 | x6 | x6 | x6 | x6 | x6 | x6 | x2 G2 x2 | x6 | x6 | x6 | x6 | G6 || x6 | %17
 x6 | x6 | x6 | x6 | x6 | x6 | x6 | x6 | x6 | x6 | x6 | x6 | x4 G2 | (G2 E2) x2 | G6 |] %32
V:3
 G,2 G,2 G,2 | G,4 G,2 | [D,C]2 [D,B,]2 [D,F,]2 | G,4 [G,,G,]2 | [C,G,]2 [C,G,]2 [E,G,]2 | %5
 G,4 [G,B,]2 | [E,A,]2 [E,A,]2 [E,G,]2 | [D,F,]6 | G,2 G,2 G,2 | G,4 G,2 | [D,C]2 [D,B,]2 [D,F,]2 | %11
 G,4 [G,B,]2 | [C,C]2 [C,G,]2 [C,C]2 | [G,B,]4 [G,D]2 | [D,D]4 [D,C]2 | [G,,B,]6 || %16
 [G,B,]2 [G,^A,]2 [G,B,]2 | G,4 [G,,G,]2 | [G,,G,]2 [G,,G,]2 [B,,G,]2 | [C,G,]4 [C,A,]2 | %20
 [D,A,]2 [D,^G,]2 [D,A,]2 | [D,C]4 [D,B,]2 | [D,A,]2 [D,A,]2 [F,D]2 | [G,D]6 | G,2 G,2 G,2 | %25
 [G,B,]4 [B,,D]2 | [C,C]2 [C,G,]2 [C,C]2 | [G,B,]4 [G,D]2 | [E,C]2 [D,B,]2 [C,C]2 | %29
 [G,B,]4 [B,,D]2 | (D2 ^C2) [D,=C]2 | [G,,B,]6 |] %32
V:4
 G,2 G,2 G,2 | G,4 G,2 | x6 | G,4 x2 | x6 | G,4 x2 | x6 | x6 | G,2 G,2 G,2 | G,4 G,2 | x6 | %11
 G,4 x2 | x6 | x6 | x6 | x6 || x6 | G,4 x2 | x6 | x6 | x6 | x6 | x6 | x6 | G,2 G,2 G,2 | x6 | x6 | %27
 x6 | x6 | x6 | D,4 x2 | x6 |] %32

